X:902
T:Fear a Bhata
S:Shetland Young Heritage
Z:Nigel Gatherer
M:3/4
L:1/4
K:G
E2F  | G3 | G2d | B>AG | F3 | A3  |
B2E  | E3 | E2G | F2E  | D3 | B,3 | 
B,2D | E3 | E2E | D2E  | G3 | A2B |
e2d  | B3 | A2G | G2F  | E3 | E3 ||
